X:63
T:Petronella
C: Nathaniel Gow
R: Reel
M:4/4
L:1/4
K:D
d/2A/2|:"D"FA/2F/2 "A7"EA/2F/2|"D"DD DF/2A/2|"G"dc/2d/2 "E7"ed|"A7"c/2d/2B/2c/2 Ad/2A/2|
|"D"FA/2F/2 "A7"EA/2F/2|"D"DD DF/2A/2|"G"dc/2d/2 "A7"ec|"D"d2 d d/2A/2:|
|:"D"Ff/2d/2 Aa/2f/2|"Em"gg/2f/2 e/2d/2c/2B/2|"A7"Ae/2c/2 Ag/2e/2|"D"ff/2d/2 "A7"A/2d/2A/2F/2|
|"D"Df/2d/2 Aa/2f/2|"Em"gg/2f/2 e/2d/2c/2B/2|"A7"Ae/2c/2 A/2g/2e/2c/2|1"D"d f d A/2G/2:|2"D" d4|]


